X:1
T:Zamboanga
M:2/4
L:1/8
K:F
 C3/2 C/2| AA FF| CC DC| E2 E2-| E z C3/2 C/2| BB GG| EC F3/2 G/2|\
 A2 A2-| A z CC| AA AA| A2 G3/2 A/2| BB BB| B2 A3/2 B/2| cc cc| BB AG|\
 A2 F2-| F2||
